X: 279
T:The Self
% Nottingham Music Database
P:AABA last time
S:FTB 1/41, via EF
M:6/8
K:G
P:A
|:B/2c/2|"G"d^cd BGB|"D7"cBc AFD|"G"DGG "D7"FGA|"G"BGB "D7"ABc|
"G"d^cd "Em"BGB|"Am"cBc "D7"AFD|"G"DGG "D7"FGA|"G"BGG G2:|
P:B
|:B/2d/2|"C"gfe "G"dBd|"Am"ecA "G"Bcd|"Am"ecA "G"dBG|"A7"GAG "D"AFD|
"C"gfe "G"dBd|"Am"ecA "G"Bcd|"C"efg "Am"fag|"D"fdd d2:|<end>
<start>
